bakery/img/footer-logo.svg

<svg width="114" height="57" viewBox="0 0 114 57" fill="none" xmlns="http://www.w3.org/2000/svg">
<path d="M38.65 47.22C39.73 47.22 40.68 46.84 41.5 46.08C42.34 45.32 42.76 44.45 42.76 43.47C42.76 42.47 42.45 41.55 41.83 40.71C41.15 41.05 40.48 41.22 39.82 41.22C38.28 41.22 37.51 40.74 37.51 39.78C37.51 39.5 37.7 39.25 38.08 39.03C38.46 38.79 39 38.67 39.7 38.67C40.42 38.67 41.2 38.88 42.04 39.3C42.84 38.44 43.24 37.47 43.24 36.39C43.24 35.05 42.65 33.99 41.47 33.21C40.31 32.41 39.06 32.01 37.72 32.01C37.44 32.01 37.23 32.02 37.09 32.04C37.07 32.62 37.02 33.55 36.94 34.83C36.82 36.75 36.76 39.68 36.76 43.62C36.76 45.14 36.65 45.9 36.43 45.9C35.57 45.9 35.02 45.78 34.78 45.54C34.54 45.3 34.42 44.61 34.42 43.47C34.42 43.19 34.47 42.04 34.57 40.02C34.69 38 34.75 36.37 34.75 35.13C34.75 33.89 34.79 32.98 34.87 32.4C33.81 32.76 33.24 33.34 33.16 34.14C33.08 34.8 32.93 35.26 32.71 35.52C32.51 35.78 32.23 35.91 31.87 35.91C31.53 35.91 31.3 35.82 31.18 35.64C31.06 35.44 31 35.24 31 35.04C31 33.3 32.35 32.1 35.05 31.44C35.39 30.08 35.93 29.4 36.67 29.4C36.97 29.4 37.12 29.96 37.12 31.08C37.64 31.02 38.28 30.99 39.04 30.99C39.82 30.99 40.71 31.14 41.71 31.44C42.71 31.72 43.58 32.23 44.32 32.97C45.06 33.69 45.43 34.5 45.43 35.4C45.43 37.08 44.62 38.59 43 39.93C44.12 40.81 44.68 41.86 44.68 43.08C44.68 44.3 44.3 45.31 43.54 46.11C42.12 47.57 40.22 48.3 37.84 48.3C36.22 48.3 35.06 48.19 34.36 47.97C34.22 47.93 34.07 47.83 33.91 47.67C33.77 47.49 33.7 47.27 33.7 47.01C33.7 46.59 34.11 46.38 34.93 46.38C35.19 46.38 35.76 46.52 36.64 46.8C37.52 47.08 38.19 47.22 38.65 47.22ZM41.2 40.05C40.6 39.55 40.03 39.3 39.49 39.3C38.97 39.3 38.71 39.41 38.71 39.63C38.71 40.09 39.2 40.32 40.18 40.32C40.54 40.32 40.88 40.23 41.2 40.05ZM54.6058 48.15C53.8258 48.15 53.2358 47.99 52.8358 47.67C52.6958 47.53 52.6258 47.18 52.6258 46.62C52.6258 46.04 52.6458 45.27 52.6858 44.31C52.1658 45.61 51.6458 46.58 51.1258 47.22C50.6258 47.84 49.9758 48.15 49.1758 48.15C48.3758 48.15 47.6758 47.78 47.0758 47.04C46.4758 46.28 46.1758 45.1 46.1758 43.5C46.1758 41.88 46.6258 40.45 47.5258 39.21C48.4458 37.97 49.6458 37.35 51.1258 37.35C51.7658 37.35 52.4858 37.77 53.2858 38.61C53.4458 38.39 53.7258 38.13 54.1258 37.83C54.5458 37.51 54.8958 37.35 55.1758 37.35C55.4758 37.35 55.6258 37.73 55.6258 38.49C55.6258 38.69 55.5658 39.08 55.4458 39.66C55.3458 40.24 55.2258 40.66 55.0858 40.92C54.9058 41.38 54.8158 43.01 54.8158 45.81C54.8158 46.35 54.8758 46.62 54.9958 46.62C55.3358 46.6 55.8058 46.18 56.4058 45.36C57.0058 44.52 57.5958 43.45 58.1758 42.15C58.7758 40.85 59.1358 40.2 59.2558 40.2C59.3958 40.2 59.4658 40.28 59.4658 40.44C59.4658 41 59.1758 41.89 58.5958 43.11C57.0158 46.47 55.6858 48.15 54.6058 48.15ZM50.9458 38.55C50.3858 38.55 49.7858 38.97 49.1458 39.81C48.5258 40.63 48.2158 41.6 48.2158 42.72C48.2158 43.84 48.3758 44.76 48.6958 45.48C49.0358 46.2 49.4758 46.56 50.0158 46.56C50.6758 46.56 51.6458 44.91 52.9258 41.61C52.9458 41.45 52.9658 41.18 52.9858 40.8C53.0258 40.4 53.0558 40.1 53.0758 39.9C52.8958 39.58 52.5758 39.28 52.1158 39C51.6758 38.7 51.2858 38.55 50.9458 38.55ZM67.3202 49.05L68.1302 48.96C68.2902 48.96 68.3702 49.04 68.3702 49.2C68.3702 49.48 68.1802 49.69 67.8002 49.83C67.4202 49.97 66.9902 50.04 66.5102 50.04C65.6102 50.04 64.8502 49.68 64.2302 48.96C63.6302 48.24 62.7902 46.91 61.7102 44.97C61.4502 44.55 61.3202 44.23 61.3202 44.01C61.3202 43.71 61.7402 43.36 62.5802 42.96C63.9402 42.26 64.6202 41.38 64.6202 40.32C64.6202 40.02 64.5102 39.77 64.2902 39.57C64.0902 39.35 63.8202 39.24 63.4802 39.24C63.0002 39.24 62.4302 39.81 61.7702 40.95C61.1102 42.07 60.6602 43.13 60.4202 44.13C60.2002 45.11 60.0902 46.17 60.0902 47.31C60.0902 47.87 59.9302 48.15 59.6102 48.15C59.1502 48.15 58.7102 48.09 58.2902 47.97C57.8702 47.83 57.6602 47.66 57.6602 47.46C57.6602 47.24 57.7402 46.29 57.9002 44.61C58.0602 42.91 58.1502 41.69 58.1702 40.95C58.2502 36.87 58.4902 33.75 58.8902 31.59C58.9502 31.41 59.2202 31.1 59.7002 30.66C60.2002 30.22 60.6002 30 60.9002 30C61.2002 30 61.3402 30.38 61.3202 31.14C61.3202 31.88 61.1602 33.48 60.8402 35.94C60.5202 38.4 60.3202 40.65 60.2402 42.69C60.6002 41.41 61.1702 40.2 61.9502 39.06C62.7502 37.92 63.5502 37.35 64.3502 37.35C65.7102 37.35 66.3902 38.01 66.3902 39.33C66.3902 40.21 66.1302 41.01 65.6102 41.73C65.0902 42.43 64.3902 43 63.5102 43.44C63.3302 43.52 63.2402 43.61 63.2402 43.71C63.2402 43.81 63.2702 43.91 63.3302 44.01C64.5902 46.23 65.6602 47.79 66.5402 48.69C66.7802 48.93 67.0402 49.05 67.3202 49.05ZM71.6034 48.15C70.4834 48.15 69.5934 47.73 68.9334 46.89C68.2734 46.03 67.9434 45.06 67.9434 43.98C67.9434 41.8 68.4034 40.15 69.3234 39.03C70.2434 37.91 71.4334 37.35 72.8934 37.35C73.5734 37.35 74.1334 37.54 74.5734 37.92C75.0134 38.28 75.2334 38.78 75.2334 39.42C75.2334 40.62 74.7234 41.63 73.7034 42.45C72.7034 43.25 71.4734 43.67 70.0134 43.71C70.0934 44.49 70.3534 45.17 70.7934 45.75C71.2534 46.31 71.7834 46.59 72.3834 46.59C72.9834 46.59 73.5234 46.45 74.0034 46.17C74.4834 45.89 74.9234 45.49 75.3234 44.97C76.1634 43.87 76.8834 42.62 77.4834 41.22C77.6434 40.86 77.7634 40.6 77.8434 40.44C77.9434 40.28 78.0434 40.2 78.1434 40.2C78.2634 40.2 78.3234 40.28 78.3234 40.44C78.3234 41.44 77.7134 42.94 76.4934 44.94C75.1734 47.08 73.5434 48.15 71.6034 48.15ZM70.0134 42.99C71.1934 42.79 72.0534 42.41 72.5934 41.85C73.1534 41.29 73.4334 40.56 73.4334 39.66C73.4334 38.76 73.1434 38.31 72.5634 38.31C71.8634 38.31 71.2734 38.8 70.7934 39.78C70.3134 40.74 70.0534 41.81 70.0134 42.99ZM79.3424 40.17L80.9924 39.99C81.1524 39.99 81.2924 40.08 81.4124 40.26C81.5324 40.44 81.5924 40.63 81.5924 40.83C81.5924 41.03 81.5224 41.71 81.3824 42.87C81.2624 44.03 81.2024 44.95 81.2024 45.63C81.2024 46.29 81.2624 46.62 81.3824 46.62C81.7224 46.6 82.1924 46.18 82.7924 45.36C83.3924 44.52 83.9824 43.45 84.5624 42.15C85.1624 40.85 85.5224 40.2 85.6424 40.2C85.7824 40.2 85.8524 40.28 85.8524 40.44C85.8524 41 85.5624 41.89 84.9824 43.11C83.4024 46.47 82.0724 48.15 80.9924 48.15C80.2124 48.15 79.6224 47.99 79.2224 47.67C79.0824 47.53 79.0124 46.66 79.0124 45.06C79.0124 43.46 79.1824 42.09 79.5224 40.95C78.3624 40.95 77.5524 40.58 77.0924 39.84C76.8524 39.46 76.7324 39.03 76.7324 38.55C76.7324 38.07 76.8324 37.65 77.0324 37.29C77.2324 36.93 77.5124 36.75 77.8724 36.75C78.2524 36.75 78.5924 36.95 78.8924 37.35C79.2124 37.73 79.3724 38.16 79.3724 38.64C79.3724 39.12 79.2324 39.6 78.9524 40.08C79.0324 40.14 79.1624 40.17 79.3424 40.17ZM86.5689 48.15C86.1289 48.15 85.7189 48.1 85.3389 48C84.9789 47.88 84.7589 47.77 84.6789 47.67C84.4789 47.43 84.3789 46.19 84.3789 43.95C84.3789 41.69 84.6289 38.63 85.1289 34.77C85.5489 31.59 86.5289 30 88.0689 30C88.4289 30 88.6889 30.2 88.8489 30.6C89.0089 30.98 89.0889 31.35 89.0889 31.71C89.0889 34.31 88.2989 37.22 86.7189 40.44C86.6589 42.1 86.6289 43.55 86.6289 44.79C86.6289 46.01 86.7389 46.62 86.9589 46.62C87.2989 46.6 87.7689 46.18 88.3689 45.36C88.9689 44.52 89.5589 43.45 90.1389 42.15C90.7389 40.85 91.0989 40.2 91.2189 40.2C91.3589 40.2 91.4289 40.28 91.4289 40.44C91.4289 41 91.1389 41.89 90.5589 43.11C88.9789 46.47 87.6489 48.15 86.5689 48.15ZM88.3389 31.98C88.3389 31.34 88.2589 31.02 88.0989 31.02C87.4989 31.02 87.0589 33.51 86.7789 38.49C87.8189 35.75 88.3389 33.58 88.3389 31.98ZM98.053 48.15C97.273 48.15 96.683 47.99 96.283 47.67C96.143 47.53 96.073 47.18 96.073 46.62C96.073 46.04 96.093 45.27 96.133 44.31C95.613 45.61 95.093 46.58 94.573 47.22C94.073 47.84 93.423 48.15 92.623 48.15C91.823 48.15 91.123 47.78 90.523 47.04C89.923 46.28 89.623 45.1 89.623 43.5C89.623 41.88 90.073 40.45 90.973 39.21C91.893 37.97 93.093 37.35 94.573 37.35C95.213 37.35 95.933 37.77 96.733 38.61C96.893 38.39 97.173 38.13 97.573 37.83C97.993 37.51 98.343 37.35 98.623 37.35C98.923 37.35 99.073 37.73 99.073 38.49C99.073 38.69 99.013 39.08 98.893 39.66C98.793 40.24 98.673 40.66 98.533 40.92C98.353 41.38 98.263 43.01 98.263 45.81C98.263 46.35 98.323 46.62 98.443 46.62C98.783 46.6 99.253 46.18 99.853 45.36C100.453 44.52 101.043 43.45 101.623 42.15C102.223 40.85 102.583 40.2 102.703 40.2C102.843 40.2 102.913 40.28 102.913 40.44C102.913 41 102.623 41.89 102.043 43.11C100.463 46.47 99.133 48.15 98.053 48.15ZM94.393 38.55C93.833 38.55 93.233 38.97 92.593 39.81C91.973 40.63 91.663 41.6 91.663 42.72C91.663 43.84 91.823 44.76 92.143 45.48C92.483 46.2 92.923 46.56 93.463 46.56C94.123 46.56 95.093 44.91 96.373 41.61C96.393 41.45 96.413 41.18 96.433 40.8C96.473 40.4 96.503 40.1 96.523 39.9C96.343 39.58 96.023 39.28 95.563 39C95.123 38.7 94.733 38.55 94.393 38.55ZM106.717 37.65C107.637 37.65 108.397 37.99 108.997 38.67C109.597 39.33 109.907 40.26 109.927 41.46C110.747 41.22 111.467 40.93 112.087 40.59C112.727 40.25 113.067 40.08 113.107 40.08C113.227 40.08 113.287 40.18 113.287 40.38C113.287 40.58 112.997 40.89 112.417 41.31C111.857 41.73 111.007 42.15 109.867 42.57C109.627 44.35 108.907 45.73 107.707 46.71C106.507 47.67 105.307 48.15 104.107 48.15C102.907 48.15 102.107 47.71 101.707 46.83C101.307 45.93 101.107 44.52 101.107 42.6C101.107 40.68 101.247 38.86 101.527 37.14C101.807 35.42 102.167 34.07 102.607 33.09C103.047 32.09 103.497 31.33 103.957 30.81C104.437 30.27 104.887 30 105.307 30C105.507 30 105.687 30.24 105.847 30.72C106.027 31.2 106.117 31.79 106.117 32.49C106.117 34.03 105.837 35.83 105.277 37.89C105.657 37.73 106.137 37.65 106.717 37.65ZM108.067 43.05C107.907 43.07 107.567 43.08 107.047 43.08C106.547 43.08 105.987 42.91 105.367 42.57C104.767 42.21 104.357 41.72 104.137 41.1C103.937 41.6 103.707 42.08 103.447 42.54C103.487 44.06 103.607 45.15 103.807 45.81C104.007 46.47 104.327 46.8 104.767 46.8C105.467 46.8 106.147 46.51 106.807 45.93C107.487 45.33 107.907 44.37 108.067 43.05ZM105.397 33.03C105.397 32.19 105.287 31.77 105.067 31.77C104.887 31.77 104.667 32.21 104.407 33.09C104.167 33.95 103.937 35.13 103.717 36.63C103.517 38.11 103.417 39.58 103.417 41.04C104.737 37.3 105.397 34.63 105.397 33.03ZM106.237 38.73C105.957 38.73 105.727 38.82 105.547 39C105.387 39.16 105.307 39.38 105.307 39.66C105.307 40.28 105.577 40.8 106.117 41.22C106.677 41.62 107.347 41.82 108.127 41.82C108.107 41 107.947 40.28 107.647 39.66C107.347 39.04 106.877 38.73 106.237 38.73Z" fill="white"/>
<path d="M0 20.5C0 9.17819 9.17819 0 20.5 0C31.8217 0 40.9999 9.17819 41 20.5C41 21.1003 40.9607 21.6909 40.9102 22.2782C40.1492 21.9593 39.3143 21.7813 38.4375 21.7813C36.6365 21.7813 35.0153 22.5295 33.8513 23.7258C32.9011 23.3055 31.8558 23.0625 30.75 23.0625C26.5043 23.0625 23.0625 26.5043 23.0625 30.75C23.0625 31.8558 23.3056 32.9012 23.7258 33.8513C22.5295 35.0152 21.7813 36.6365 21.7813 38.4375C21.7813 39.3143 21.9594 40.1492 22.2783 40.9102C21.691 40.9607 21.1003 41 20.5 41C9.17819 41 0 31.8218 0 20.5Z" fill="#412D22"/>
<path d="M20.5 0C9.17819 0 0 9.17819 0 20.5C0 31.8218 9.17819 41 20.5 41C21.1003 41 21.691 40.9607 22.2783 40.9102C21.9594 40.1492 21.7813 39.3143 21.7813 38.4375C21.7813 36.6365 22.5295 35.0152 23.7258 33.8513C23.3056 32.9012 23.0625 31.8558 23.0625 30.75C23.0625 26.5043 26.5043 23.0625 30.75 23.0625C31.8558 23.0625 32.9011 23.3055 33.8513 23.7258C35.0153 22.5295 36.6365 21.7813 38.4375 21.7813C39.3143 21.7813 40.1492 21.9593 40.9102 22.2782C40.9607 21.6909 41 21.1003 41 20.5C40.9999 9.17819 31.8217 0 20.5 0ZM6.40626 20.5C5.69872 20.5 5.12504 19.9263 5.12504 19.2188C5.12504 18.5111 5.69872 17.9376 6.40626 17.9376C7.1138 17.9376 7.68748 18.5111 7.68748 19.2188C7.68748 19.9263 7.1138 20.5 6.40626 20.5ZM12.8124 30.7499C11.3971 30.7499 10.2499 29.6026 10.2499 28.1874C10.2499 26.7721 11.3971 25.6249 12.8124 25.6249C14.2277 25.6249 15.375 26.7721 15.375 28.1874C15.375 29.6026 14.2277 30.7499 12.8124 30.7499ZM15.375 12.8124C13.9597 12.8124 12.8124 11.6651 12.8124 10.2499C12.8124 8.83463 13.9597 7.68741 15.375 7.68741C16.7903 7.68741 17.9375 8.83463 17.9375 10.2499C17.9375 11.6651 16.7903 12.8124 15.375 12.8124ZM19.2187 23.0624C18.5112 23.0624 17.9375 22.4888 17.9375 21.7812C17.9375 21.0735 18.5112 20.5 19.2187 20.5C19.9262 20.5 20.4999 21.0735 20.4999 21.7812C20.5 22.4888 19.9263 23.0624 19.2187 23.0624ZM26.9062 5.12496C27.6137 5.12496 28.1874 5.6985 28.1874 6.40619C28.1874 7.11372 27.6137 7.68741 26.9062 7.68741C26.1986 7.68741 25.625 7.11372 25.625 6.40619C25.625 5.6985 26.1986 5.12496 26.9062 5.12496ZM28.1875 17.9375C26.7722 17.9375 25.625 16.7901 25.625 15.375C25.625 13.9597 26.7722 12.8124 28.1875 12.8124C29.6028 12.8124 30.75 13.9597 30.75 15.375C30.7499 16.7901 29.6027 17.9375 28.1875 17.9375Z" fill="#E39A3B"/>
</svg>

<svg width="114" height="57" fill="none" xmlns="http://www.w3.org/2000/svg"><path d="M38.65 47.22c1.08 0 2.03-.38 2.85-1.14.84-.76 1.26-1.63 1.26-2.61 0-1-.31-1.92-.93-2.76-.68.34-1.35.51-2.01.51-1.54 0-2.31-.48-2.31-1.44 0-.28.19-.53.57-.75.38-.24.92-.36 1.62-.36.72 0 1.5.21 2.34.63.8-.86 1.2-1.83 1.2-2.91 0-1.34-.59-2.4-1.77-3.18-1.16-.8-2.41-1.2-3.75-1.2-.28 0-.49.01-.63.03-.02.58-.07 1.51-.15 2.79-.12 1.92-.18 4.85-.18 8.79 0 1.52-.11 2.28-.33 2.28-.86 0-1.41-.12-1.65-.36s-.36-.93-.36-2.07c0-.28.05-1.43.15-3.45.12-2.02.18-3.65.18-4.89 0-1.24.04-2.15.12-2.73-1.06.36-1.63.94-1.71 1.74-.08.66-.23 1.12-.45 1.38-.2.26-.48.39-.84.39-.34 0-.57-.09-.69-.27-.12-.2-.18-.4-.18-.6 0-1.74 1.35-2.94 4.05-3.6.34-1.36.88-2.04 1.62-2.04.3 0 .45.56.45 1.68.52-.06 1.16-.09 1.92-.09.78 0 1.67.15 2.67.45 1 .28 1.87.79 2.61 1.53.74.72 1.11 1.53 1.11 2.43 0 1.68-.81 3.19-2.43 4.53 1.12.88 1.68 1.93 1.68 3.15s-.38 2.23-1.14 3.03c-1.42 1.46-3.32 2.19-5.7 2.19-1.62 0-2.78-.11-3.48-.33-.14-.04-.29-.14-.45-.3-.14-.18-.21-.4-.21-.66 0-.42.41-.63 1.23-.63.26 0 .83.14 1.71.42.88.28 1.55.42 2.01.42zm2.55-7.17c-.6-.5-1.17-.75-1.71-.75-.52 0-.78.11-.78.33 0 .46.49.69 1.47.69.36 0 .7-.09 1.02-.27zm13.406 8.1c-.78 0-1.37-.16-1.77-.48-.14-.14-.21-.49-.21-1.05 0-.58.02-1.35.06-2.31-.52 1.3-1.04 2.27-1.56 2.91-.5.62-1.15.93-1.95.93s-1.5-.37-2.1-1.11c-.6-.76-.9-1.94-.9-3.54 0-1.62.45-3.05 1.35-4.29.92-1.24 2.12-1.86 3.6-1.86.64 0 1.36.42 2.16 1.26.16-.22.44-.48.84-.78.42-.32.77-.48 1.05-.48.3 0 .45.38.45 1.14 0 .2-.06.59-.18 1.17-.1.58-.22 1-.36 1.26-.18.46-.27 2.09-.27 4.89 0 .54.06.81.18.81.34-.02.81-.44 1.41-1.26.6-.84 1.19-1.91 1.77-3.21.6-1.3.96-1.95 1.08-1.95.14 0 .21.08.21.24 0 .56-.29 1.45-.87 2.67-1.58 3.36-2.91 5.04-3.99 5.04zm-3.66-9.6c-.56 0-1.16.42-1.8 1.26-.62.82-.93 1.79-.93 2.91s.16 2.04.48 2.76c.34.72.78 1.08 1.32 1.08.66 0 1.63-1.65 2.91-4.95.02-.16.04-.43.06-.81l.09-.9c-.18-.32-.5-.62-.96-.9-.44-.3-.83-.45-1.17-.45zm16.374 10.5l.81-.09c.16 0 .24.08.24.24 0 .28-.19.49-.57.63-.38.14-.81.21-1.29.21-.9 0-1.66-.36-2.28-1.08-.6-.72-1.44-2.05-2.52-3.99-.26-.42-.39-.74-.39-.96 0-.3.42-.65 1.26-1.05 1.36-.7 2.04-1.58 2.04-2.64 0-.3-.11-.55-.33-.75-.2-.22-.47-.33-.81-.33-.48 0-1.05.57-1.71 1.71-.66 1.12-1.11 2.18-1.35 3.18-.22.98-.33 2.04-.33 3.18 0 .56-.16.84-.48.84-.46 0-.9-.06-1.32-.18-.42-.14-.63-.31-.63-.51 0-.22.08-1.17.24-2.85.16-1.7.25-2.92.27-3.66.08-4.08.32-7.2.72-9.36.06-.18.33-.49.81-.93.5-.44.9-.66 1.2-.66.3 0 .44.38.42 1.14 0 .74-.16 2.34-.48 4.8-.32 2.46-.52 4.71-.6 6.75.36-1.28.93-2.49 1.71-3.63.8-1.14 1.6-1.71 2.4-1.71 1.36 0 2.04.66 2.04 1.98 0 .88-.26 1.68-.78 2.4-.52.7-1.22 1.27-2.1 1.71-.18.08-.27.17-.27.27s.03.2.09.3c1.26 2.22 2.33 3.78 3.21 4.68.24.24.5.36.78.36zm4.283-.9c-1.12 0-2.01-.42-2.67-1.26-.66-.86-.99-1.83-.99-2.91 0-2.18.46-3.83 1.38-4.95.92-1.12 2.11-1.68 3.57-1.68.68 0 1.24.19 1.68.57.44.36.66.86.66 1.5 0 1.2-.51 2.21-1.53 3.03-1 .8-2.23 1.22-3.69 1.26.08.78.34 1.46.78 2.04.46.56.99.84 1.59.84.6 0 1.14-.14 1.62-.42.48-.28.92-.68 1.32-1.2.84-1.1 1.56-2.35 2.16-3.75.16-.36.28-.62.36-.78.1-.16.2-.24.3-.24.12 0 .18.08.18.24 0 1-.61 2.5-1.83 4.5-1.32 2.14-2.95 3.21-4.89 3.21zm-1.59-5.16c1.18-.2 2.04-.58 2.58-1.14.56-.56.84-1.29.84-2.19 0-.9-.29-1.35-.87-1.35-.7 0-1.29.49-1.77 1.47-.48.96-.74 2.03-.78 3.21zm9.33-2.82l1.65-.18c.16 0 .3.09.42.27.12.18.18.37.18.57 0 .2-.07.88-.21 2.04-.12 1.16-.18 2.08-.18 2.76 0 .66.06.99.18.99.34-.02.81-.44 1.41-1.26.6-.84 1.19-1.91 1.77-3.21.6-1.3.96-1.95 1.08-1.95.14 0 .21.08.21.24 0 .56-.29 1.45-.87 2.67-1.58 3.36-2.91 5.04-3.99 5.04-.78 0-1.37-.16-1.77-.48-.14-.14-.21-1.01-.21-2.61 0-1.6.17-2.97.51-4.11-1.16 0-1.97-.37-2.43-1.11-.24-.38-.36-.81-.36-1.29s.1-.9.3-1.26c.2-.36.48-.54.84-.54.38 0 .72.2 1.02.6.32.38.48.81.48 1.29s-.14.96-.42 1.44c.08.06.21.09.39.09zm7.226 7.98c-.44 0-.85-.05-1.23-.15-.36-.12-.58-.23-.66-.33-.2-.24-.3-1.48-.3-3.72 0-2.26.25-5.32.75-9.18.42-3.18 1.4-4.77 2.94-4.77.36 0 .62.2.78.6.16.38.24.75.24 1.11 0 2.6-.79 5.51-2.37 8.73-.06 1.66-.09 3.11-.09 4.35 0 1.22.11 1.83.33 1.83.34-.02.81-.44 1.41-1.26.6-.84 1.19-1.91 1.77-3.21.6-1.3.96-1.95 1.08-1.95.14 0 .21.08.21.24 0 .56-.29 1.45-.87 2.67-1.58 3.36-2.91 5.04-3.99 5.04zm1.77-16.17c0-.64-.08-.96-.24-.96-.6 0-1.04 2.49-1.32 7.47 1.04-2.74 1.56-4.91 1.56-6.51zm9.714 16.17c-.78 0-1.37-.16-1.77-.48-.14-.14-.21-.49-.21-1.05 0-.58.02-1.35.06-2.31-.52 1.3-1.04 2.27-1.56 2.91-.5.62-1.15.93-1.95.93s-1.5-.37-2.1-1.11c-.6-.76-.9-1.94-.9-3.54 0-1.62.45-3.05 1.35-4.29.92-1.24 2.12-1.86 3.6-1.86.64 0 1.36.42 2.16 1.26.16-.22.44-.48.84-.78.42-.32.77-.48 1.05-.48.3 0 .45.38.45 1.14 0 .2-.06.59-.18 1.17-.1.58-.22 1-.36 1.26-.18.46-.27 2.09-.27 4.89 0 .54.06.81.18.81.34-.02.81-.44 1.41-1.26.6-.84 1.19-1.91 1.77-3.21.6-1.3.96-1.95 1.08-1.95.14 0 .21.08.21.24 0 .56-.29 1.45-.87 2.67-1.58 3.36-2.91 5.04-3.99 5.04zm-3.66-9.6c-.56 0-1.16.42-1.8 1.26-.62.82-.93 1.79-.93 2.91s.16 2.04.48 2.76c.34.72.78 1.08 1.32 1.08.66 0 1.63-1.65 2.91-4.95.02-.16.04-.43.06-.81l.09-.9c-.18-.32-.5-.62-.96-.9-.44-.3-.83-.45-1.17-.45zm12.324-.9c.92 0 1.68.34 2.28 1.02.6.66.91 1.59.93 2.79a10.8 10.8 0 002.16-.87c.64-.34.98-.51 1.02-.51.12 0 .18.1.18.3 0 .2-.29.51-.87.93-.56.42-1.41.84-2.55 1.26-.24 1.78-.96 3.16-2.16 4.14-1.2.96-2.4 1.44-3.6 1.44-1.2 0-2-.44-2.4-1.32-.4-.9-.6-2.31-.6-4.23 0-1.92.14-3.74.42-5.46.28-1.72.64-3.07 1.08-4.05.44-1 .89-1.76 1.35-2.28.48-.54.93-.81 1.35-.81.2 0 .38.24.54.72.18.48.27 1.07.27 1.77 0 1.54-.28 3.34-.84 5.4.38-.16.86-.24 1.44-.24zm1.35 5.4c-.16.02-.5.03-1.02.03-.5 0-1.06-.17-1.68-.51-.6-.36-1.01-.85-1.23-1.47-.2.5-.43.98-.69 1.44.04 1.52.16 2.61.36 3.27.2.66.52.99.96.99.7 0 1.38-.29 2.04-.87.68-.6 1.1-1.56 1.26-2.88zm-2.67-10.02c0-.84-.11-1.26-.33-1.26-.18 0-.4.44-.66 1.32-.24.86-.47 2.04-.69 3.54-.2 1.48-.3 2.95-.3 4.41 1.32-3.74 1.98-6.41 1.98-8.01zm.84 5.7c-.28 0-.51.09-.69.27-.16.16-.24.38-.24.66 0 .62.27 1.14.81 1.56.56.4 1.23.6 2.01.6-.02-.82-.18-1.54-.48-2.16-.3-.62-.77-.93-1.41-.93z" fill="#fff"/><path d="M0 20.5C0 9.178 9.178 0 20.5 0S41 9.178 41 20.5c0 .6-.04 1.19-.09 1.778a6.382 6.382 0 00-7.059 1.448 7.64 7.64 0 00-3.101-.663 7.687 7.687 0 00-7.688 7.687c0 1.106.244 2.151.664 3.101a6.378 6.378 0 00-1.448 7.06c-.587.05-1.178.089-1.778.089C9.178 41 0 31.822 0 20.5z" fill="#412D22"/><path d="M20.5 0C9.178 0 0 9.178 0 20.5S9.178 41 20.5 41c.6 0 1.191-.04 1.778-.09a6.382 6.382 0 011.448-7.059 7.642 7.642 0 01-.663-3.101 7.687 7.687 0 017.687-7.688 7.64 7.64 0 013.101.664 6.378 6.378 0 017.06-1.448c.05-.587.089-1.178.089-1.778C41 9.178 31.822 0 20.5 0zM6.406 20.5a1.281 1.281 0 110-2.563 1.281 1.281 0 010 2.563zm6.406 10.25a2.562 2.562 0 110-5.125 2.562 2.562 0 010 5.125zm2.563-17.938a2.563 2.563 0 110-5.125 2.563 2.563 0 010 5.125zm3.844 10.25a1.281 1.281 0 110-2.562 1.281 1.281 0 010 2.562zm7.687-17.937a1.281 1.281 0 110 2.562 1.281 1.281 0 010-2.562zm1.282 12.813a2.563 2.563 0 110-5.126 2.563 2.563 0 010 5.126z" fill="#E39A3B"/></svg>
